X:88
T:Steyrer Tanz in G, nr. 53
C:traditionell
R:Steirer
A:Hallstatt, Salzkammergut
B:Corpus Musicae Popularis Austriacae (COMPA), 5.Band: J.M.Schmalnauer " Tanz Musik", Verlag Boehlau, Wien 1996
S:manuscript des Johann Michael Schmalnauer um 1820
N:im der quelle in G
Z:abc transcription Simon Wascher
F:http://simonwascher.info/TradArchiv/
M:3/4
L:1/8
K:G
V:1
%violino 1mo
Bc |:\
d2 Bddg | b2 gdBd | c2 Accf | a2 fcAc |\
d2 Bddg | b2 gdgb |1 abagfe | dedcBA :|\
##################[2 abagfa | g4 :|
V:2
%violino 2do
GA |:\
TB2 (GB).B.d | Tg2 (dB).G.B | A2 (FA).A.d | f2 dAFA |\
B2 GBBd | g2 dBdg |1 fgfedc | BcBAGA :|\
##################[2 cdcBAc | B4 :|
